build/img/icons/arrow-left-orange.svg

<svg width="24" height="24" viewBox="0 0 24 24" fill="none" xmlns="http://www.w3.org/2000/svg">
<g filter="url(#filter0_d)">
<path d="M11.5858 18.0102L13.0008 16.5972L8.4008 11.9972L13.0008 7.39723L11.5858 5.99023L5.5758 12.0002L11.5848 18.0102H11.5858ZM17.0108 18.0102L18.4248 16.5972L13.8248 11.9972L18.4248 7.40423L17.0108 5.99023L10.9998 12.0002L17.0098 18.0102H17.0108Z" fill="white"/>
</g>
<defs>
<filter id="filter0_d" x="0" y="0" width="24" height="26" filterUnits="userSpaceOnUse" color-interpolation-filters="sRGB">
<feFlood flood-opacity="0" result="BackgroundImageFix"/>
<feColorMatrix in="SourceAlpha" type="matrix" values="0 0 0 0 0 0 0 0 0 0 0 0 0 0 0 0 0 0 127 0" result="hardAlpha"/>
<feOffset dy="2"/>
<feColorMatrix type="matrix" values="0 0 0 0 0.839216 0 0 0 0 0.47451 0 0 0 0 0.14902 0 0 0 1 0"/>
<feBlend mode="normal" in2="BackgroundImageFix" result="effect1_dropShadow"/>
<feBlend mode="normal" in="SourceGraphic" in2="effect1_dropShadow" result="shape"/>
</filter>
</defs>
</svg>

<svg width="24" height="24" viewBox="0 0 24 24" fill="none" xmlns="http://www.w3.org/2000/svg">
    <path d="M11.586 18.01L13 16.597l-4.6-4.6 4.6-4.6-1.415-1.407L5.576 12l6.009 6.01zm5.425 0l1.414-1.413-4.6-4.6 4.6-4.593L17.01 5.99 11 12l6.01 6.01z" fill="#fff" filter="url(#a)"/>
    <defs>
        <filter id="a" x="0" y="0" width="24" height="26" filterUnits="userSpaceOnUse" color-interpolation-filters="sRGB">
            <feFlood flood-opacity="0" result="BackgroundImageFix"/>
            <feColorMatrix in="SourceAlpha" values="0 0 0 0 0 0 0 0 0 0 0 0 0 0 0 0 0 0 127 0" result="hardAlpha"/>
            <feOffset dy="2"/>
            <feColorMatrix values="0 0 0 0 0.839216 0 0 0 0 0.47451 0 0 0 0 0.14902 0 0 0 1 0"/>
            <feBlend in2="BackgroundImageFix" result="effect1_dropShadow"/>
            <feBlend in="SourceGraphic" in2="effect1_dropShadow" result="shape"/>
        </filter>
    </defs>
</svg>
